X:457
T: Ridou chuzai jiulongkou
N: C2075
O: China,Qinghai Osten
S: I, 232]
N: Hui Han
R: Shange, Huar, Raosanraoling]
M: 3/4
L: 1/16
K: C
G4A4c4 | G4A4c4 | G4A4c4 | d2d6g4 |
g4c4d4 | c4A6z2 | G4A4c4 | d4z8 |
G4A4c4 | G4A4c4 | d4A4c4 | d2g2A4G4 | G4G8- | G12

@@@ Tune index: 7012
